ametion_vv-test/img/icons/social/yandex_dzen.svg

<svg width="56" height="56" viewBox="0 0 56 56" fill="none" xmlns="http://www.w3.org/2000/svg">
<g clip-path="url(#clip0_1_223)">
<rect x="0.00140381" width="55.9994" height="55.9994" fill="#F9F9F9"/>
<path fill-rule="evenodd" clip-rule="evenodd" d="M46.0009 28.1982V27.9993V27.8011C38.0305 27.5599 34.3857 27.3611 31.4787 24.5218C28.6402 21.6154 28.4405 17.9707 28.2 9.99988H28.001H27.8021C27.5616 17.9707 27.362 21.6154 24.5234 24.5218C21.6164 27.3611 17.9716 27.5599 10.0013 27.8011V27.9993V28.1982C17.9716 28.4394 21.6164 28.6383 24.5234 31.4769C27.362 34.384 27.5616 38.0287 27.8021 45.9995H28.001H28.2C28.4405 38.0287 28.6402 34.384 31.4787 31.4769C34.3857 28.6383 38.0305 28.4394 46.0009 28.1982Z" fill="#36BA5F"/>
</g>
<defs>
<clipPath id="clip0_1_223">
<path d="M0.00140381 13.3311C0.00140381 5.96852 5.96992 0 13.3325 0H42.6697C50.0323 0 56.0008 5.96852 56.0008 13.3311V42.6683C56.0008 50.0309 50.0323 55.9994 42.6697 55.9994H13.3325C5.96992 55.9994 0.00140381 50.0309 0.00140381 42.6683V13.3311Z" fill="white"/>
</clipPath>
</defs>
</svg>

<svg width="56" height="56" fill="none" xmlns="http://www.w3.org/2000/svg"><g clip-path="url(#clip0_1_223)"><path fill="#F9F9F9" d="M.001 0H56v55.999H.001z"/><path fill-rule="evenodd" clip-rule="evenodd" d="M46 28.198v-.397c-7.97-.241-11.614-.44-14.521-3.28C28.64 21.616 28.44 17.972 28.2 10h-.398c-.24 7.97-.44 11.615-3.279 14.522-2.907 2.84-6.551 3.038-14.522 3.28v.397c7.97.24 11.615.44 14.522 3.278 2.839 2.907 3.039 6.552 3.28 14.522h.397c.24-7.97.44-11.615 3.279-14.522 2.907-2.839 6.552-3.038 14.522-3.279z" fill="#36BA5F"/></g><defs><clipPath id="clip0_1_223"><path d="M.001 13.331C.001 5.97 5.97 0 13.333 0H42.67C50.032 0 56 5.969 56 13.331v29.337C56 50.031 50.033 56 42.67 56H13.332C5.97 56 .002 50.031.002 42.67V13.33z" fill="#fff"/></clipPath></defs></svg>
